usr/share/icons/biglinux-icons-material/symbolic/devices/media-memory-sembolic.svg

<svg version="1.1" viewBox="0 0 16 16" xmlns="http://www.w3.org/2000/svg">
 <path d="m0 4v0.5 6.5h1v2h14v-2h1v-7h-16zm1 1h14v5h-14v-5zm1 1v3h2v-3h-2zm3 0v3h2v-3h-2zm4 0v3h2v-3h-2zm3 0v3h2v-3h-2zm-10 5h1v1h-1v-1zm2 0h1v1h-1v-1zm2 0h1v1h-1v-1zm2 0h2v1h-2v-1zm3 0h1v1h-1v-1zm2 0h1v1h-1v-1z" color="#000000" color-rendering="auto" dominant-baseline="auto" fill="#363636" image-rendering="auto" shape-rendering="auto" solid-color="#000000" style="font-feature-settings:normal;font-variant-alternates:normal;font-variant-caps:normal;font-variant-ligatures:normal;font-variant-numeric:normal;font-variant-position:normal;isolation:auto;mix-blend-mode:normal;shape-padding:0;text-decoration-color:#000000;text-decoration-line:none;text-decoration-style:solid;text-indent:0;text-orientation:mixed;text-transform:none;white-space:normal"/>
</svg>

<svg xmlns="http://www.w3.org/2000/svg" viewBox="0 0 16 16"><path fill="#dedede" d="M0 4v7h1v2h14v-2h1V4H0zm1 1h14v5H1V5zm1 1v3h2V6H2zm3 0v3h2V6H5zm4 0v3h2V6H9zm3 0v3h2V6h-2zM2 11h1v1H2v-1zm2 0h1v1H4v-1zm2 0h1v1H6v-1zm2 0h2v1H8v-1zm3 0h1v1h-1v-1zm2 0h1v1h-1v-1z" color="#000" style="font-feature-settings:normal;font-variant-alternates:normal;font-variant-caps:normal;font-variant-ligatures:normal;font-variant-numeric:normal;font-variant-position:normal;isolation:auto;mix-blend-mode:normal;shape-padding:0;text-decoration-color:#000;text-decoration-line:none;text-decoration-style:solid;text-indent:0;text-orientation:mixed;text-transform:none;white-space:normal"/></svg>
